!!!OTL: 56d. Die Kindsmoerderin.
!!!ODT: 1880
!!!ARE: Europa, Mitteleuropa, Deutschland, Unter - Taunus, Niederreifenberg
!!!SCT: E0056D
!!!TXL: @@DE
!!!YEM: Copyright 1995, estate of Helmut Schaffrath.
**kern	**text
*ICvox	*
*M3/4	*
*met(3)	*
*k[f#]	*
*G:	*
!LO:TX:a:t=Langſam.	!
!LO:TX:a:t=Aus Niederreifenberg (Untertaunuskr.) u. Lingelbach, Kr. Ʒiegenhain. 1880.	!
{4d	Ach
=1	=1
4g	Jo-
4b	-ſeph,
8dd	lie-
8b	-ber
=2	=2
8bL	Jo-
8aJ	.
4a}	-ſeph,
{4ee	was
=3	=3
4dd	haſt
4cc	du
4b	ge-
=4	=4
2a}	-macht,
{8aL	denn
8bJ	du
=5	=5
4cc	haſt
8cc	ja
8ee	die
8dd	ſchö-
8cc	-ne
=6	=6
4b	Ber-
4dd}	-tha
{8b	ins
8b	.
=7	=7
4a	Un-
4dd	-glück
4cc	ge-
=8	=8
2b}	-bracht.
{8aL	denn
8bJ	du
=9	=9
4cc	haſt
8cc	ja
8ee	die
8dd	ſchö-
8cc	-ne
=10	=10
4b	Ber-
4dd}	-tha
{8b	ins
8b	.
=11	=11
4a	Un-
4dd	-glück
4cc	ge-
=12	=12
2b}	-bracht.
==	==
!!!AGN: erzaehlendes Volks - Lied, Sage, Kinds - Mord, Ballade ?
!!!ONB: ESAC (Essen Associative Code) Database: ERK1
!!!AMT: simple triple
!!!AIN: vox
!!!EED: Helmut Schaffrath
!!!EEV: 1.0
!!!GTL: Sagen von Mordthaten, unschuldig Gesangeg und Hinrichtungen
!!!URL-scan: https://rosdok.uni-rostock.de/mcrviewer/recordIdentifier/rosdok_ppn745146120/iview2/phys_0251.iview2?x=-4.404412318551749&y=1501.7990812589414&scale=0.6456904138606623&rotation=0&layout=singlePageLayout&logicalDiv=log_0009
!!!ENC: Anna Maria Matuszewska
!!!EEV: 2024/11/25
*-	*-
